X: 2
T: Balance The Straw
Z: Mix O'Lydian
S: https://thesession.org/tunes/13387#setting23538
R: reel
M: 4/4
L: 1/8
K: Gmaj
|: G2 B2 (3BcB AB | c2 A2 A2 Bc | d2 ed c2 Ac | A2 G2 G4 :|
|: e2 d2 d2 G2 | B2 B2 B4 | e2 d2 d2 G2 | B2 A2 G4 |
G2 B2 B2 Bd | c2 A2 A2 B2 | c2 ee d2 c2 | B2 G2 G4 :|
